static/fa/svgs/solid/ruler-horizontal.svg

<svg xmlns="http://www.w3.org/2000/svg" viewBox="0 0 640 512"><!--! Font Awesome Free 6.1.1 by @fontawesome - https://fontawesome.com License - https://fontawesome.com/license/free (Icons: CC BY 4.0, Fonts: SIL OFL 1.1, Code: MIT License) Copyright 2022 Fonticons, Inc.--><path d="M0 176c0-26.5 21.49-48 48-48h64v80c0 8.8 7.2 16 16 16s16-7.2 16-16v-80h64v80c0 8.8 7.2 16 16 16s16-7.2 16-16v-80h64v80c0 8.8 7.2 16 16 16s16-7.2 16-16v-80h64v80c0 8.8 7.2 16 16 16s16-7.2 16-16v-80h64v80c0 8.8 7.2 16 16 16s16-7.2 16-16v-80h64c26.5 0 48 21.5 48 48v160c0 26.5-21.5 48-48 48H48c-26.51 0-48-21.5-48-48V176z"/></svg>

<svg xmlns="http://www.w3.org/2000/svg" viewBox="0 0 640 512"><!--! Font Awesome Free 6.1.1 by @fontawesome - https://fontawesome.com License - https://fontawesome.com/license/free (Icons: CC BY 4.0, Fonts: SIL OFL 1.1, Code: MIT License) Copyright 2022 Fonticons, Inc. --><path d="M0 176C0 149.5 21.49 128 48 128H112V208C112 216.8 119.2 224 128 224C136.8 224 144 216.8 144 208V128H208V208C208 216.8 215.2 224 224 224C232.8 224 240 216.8 240 208V128H304V208C304 216.8 311.2 224 320 224C328.8 224 336 216.8 336 208V128H400V208C400 216.8 407.2 224 416 224C424.8 224 432 216.8 432 208V128H496V208C496 216.8 503.2 224 512 224C520.8 224 528 216.8 528 208V128H592C618.5 128 640 149.5 640 176V336C640 362.5 618.5 384 592 384H48C21.49 384 0 362.5 0 336V176z"/></svg>
